trunk/WorldWind/resources/milstd2525/icons/ems/effacc---------.svg

<?xml version="1.0" encoding="UTF-8" standalone="no"?>
<!--
Copyright (C) 2012 United States Government as represented by the Administrator of the
National Aeronautics and Space Administration.
All Rights Reserved.
-->

<!--
MIL-STD-2525 tactical symbol icon image. During icon composition this image is multiplied by the desired frame color 
(e.g. black), then drawn on top of the frame and fill.
-->

<svg
   xmlns:dc="http://purl.org/dc/elements/1.1/"
   xmlns:cc="http://creativecommons.org/ns#"
   xmlns:rdf="http://www.w3.org/1999/02/22-rdf-syntax-ns#"
   xmlns:svg="http://www.w3.org/2000/svg"
   xmlns="http://www.w3.org/2000/svg"
   xmlns:sodipodi="http://sodipodi.sourceforge.net/DTD/sodipodi-0.dtd"
   xmlns:inkscape="http://www.inkscape.org/namespaces/inkscape"
   height="400px"
   viewBox="0 0 400 400"
   width="400px"
   id="svg2"
   version="1.1"
   inkscape:version="0.48.2 r9819"
   sodipodi:docname="effacc---------.svg">
  <metadata
     id="metadata20">
    <rdf:RDF>
      <cc:Work
         rdf:about="">
        <dc:format>image/svg+xml</dc:format>
        <dc:type
           rdf:resource="http://purl.org/dc/dcmitype/StillImage" />
      </cc:Work>
    </rdf:RDF>
  </metadata>
  <defs
     id="defs18" />
  <sodipodi:namedview
     pagecolor="#ffffff"
     bordercolor="#666666"
     borderopacity="1"
     objecttolerance="10"
     gridtolerance="10"
     guidetolerance="10"
     inkscape:pageopacity="0"
     inkscape:pageshadow="2"
     inkscape:window-width="640"
     inkscape:window-height="480"
     id="namedview16"
     showgrid="false"
     inkscape:zoom="0.59"
     inkscape:cx="200"
     inkscape:cy="200"
     inkscape:window-x="124"
     inkscape:window-y="62"
     inkscape:window-maximized="0"
     inkscape:current-layer="svg2" />
  <g
     transform="matrix(120,0,0,120,67.66644,38.66664)"
     id="g4"
     style="stroke:#000000;stroke-width:0.05;stroke-miterlimit:4;stroke-opacity:1;stroke-dasharray:0.1, 0.05;stroke-dashoffset:0">
    <path
       inkscape:connector-curvature="0"
       d="M 1.05415,1.24589 C 1.08652,1.24859 1.15801,1.28049 1.19202,1.29136 1.22428,1.30167 1.31008,1.27272 1.3537,1.27272 l 0,-0.16096 -0.29955,0 z"
       style="fill:none;stroke:#000000;stroke-width:0.05;stroke-miterlimit:4;stroke-opacity:1;stroke-dasharray:0.1, 0.05;stroke-dashoffset:0"
       id="path6" />
    <path
       inkscape:connector-curvature="0"
       d="m 1.05415,1.11176 0.29955,0 0,0.16095 c -0.04362,0 -0.12942,0.02896 -0.16168,0.01865 C 1.15801,1.28049 1.08652,1.24858 1.05415,1.24589 z m -0.532031,0 0.4605,0 0,0.16543 c 0,0.01664 0.082841,0.03851 0.101441,0.04609 0.00978,0.004 0.10842,0.03889 0.10901,0.04133 L 1.39225,1.34028 1.41371,1.41517 1.44312,1.51861 c 0.00734,0.01096 0.02682,0.06645 0.02682,0.08495 l 0,0.00447 c 0,0.03149 -0.01788,0.05319 -0.01788,0.09836 L 1.82792,1.70629 1.80233,1.62225 1.78689,1.57383 1.70243,1.29507 C 1.69589,1.28531 1.68901,1.27602 1.68901,1.2593 c 0,-0.03493 0.10776,-0.11484 0.12929,-0.14741 l -0.07564,-0.23261 -1.220538,0 0,0.23248 z"
       style="fill:#000000;stroke:#000000;stroke-width:0.05;stroke-miterlimit:4;stroke-opacity:1;stroke-dasharray:0.1, 0.05;stroke-dashoffset:0"
       id="path8" />
  </g>
  <path
     inkscape:connector-curvature="0"
     d="m 213.778,223.339 -20.889,-16.445 -78.222,-0.888 0.889,64.888 80.444,-0.444 18.222,-21.778 z"
     style="fill:#ffffff;stroke:#000000;stroke-width:4;stroke-dasharray:10"
     id="path10" />
  <line
     style="stroke:#000000;stroke-width:2;stroke-dasharray:10"
     x1="201"
     x2="221"
     y1="240"
     y2="188"
     id="line12" />
  <text
     style="font-size:55px;font-weight:bold;fill:#000000;font-family:Arial"
     x="145"
     y="258"
     id="text14">$</text>
</svg>

<?xml version="1.0"?>
<!--
Copyright (C) 2012 United States Government as represented by the Administrator of the
National Aeronautics and Space Administration.
All Rights Reserved.
-->

<!DOCTYPE svg PUBLIC "-//W3C//DTD SVG 1.1//EN" "http://www.w3.org/Graphics/SVG/1.1/DTD/svg11.dtd" >
<!--
MIL-STD-2525 tactical symbol icon image. During icon composition this image is multiplied by the desired frame color 
(e.g. black), then drawn on top of the frame and fill.
-->
<svg xmlns:xlink="http://www.w3.org/1999/xlink" height="400px" viewBox="0 0 400 400" width="400px"><g transform="scale(120) translate(1.02222 0.988889) translate(-0.458333 -0.666667)"><path d="M1.05415 1.24589 C1.08652 1.24859 1.15801 1.28049 1.19202 1.29136 C1.22428 1.30167     1.31008 1.27272 1.3537 1.27272 L1.3537 1.11176 L1.05415 1.11176 z" style="fill:none"/><path d="M1.05415 1.11176 L1.3537 1.11176 L1.3537 1.27271 C1.31008 1.27271 1.22428 1.30167     1.19202 1.29136 C1.15801 1.28049 1.08652 1.24858 1.05415 1.24589 zM0.522119     1.11176 L0.982619 1.11176 L0.982619 1.27719 C0.982619 1.29383 1.06546 1.3157     1.08406 1.32328 C1.09384 1.32728 1.19248 1.36217 1.19307 1.36461 L1.39225     1.34028 L1.41371 1.41517 L1.44312 1.51861 C1.45046 1.52957 1.46994 1.58506 1.46994     1.60356 L1.46994 1.60803 C1.46994 1.63952 1.45206 1.66122 1.45206 1.70639     L1.82792 1.70629 L1.80233 1.62225 L1.78689 1.57383 L1.70243 1.29507 C1.69589     1.28531 1.68901 1.27602 1.68901 1.2593 C1.68901 1.22437 1.79677 1.14446     1.8183 1.11189 L1.74266 0.87928 L0.522122 0.87928 L0.522122 1.11176 z" style="fill:rgb(0,0,0)"/></g><path d="M213.778 223.339 L192.889 206.894 L114.667 206.006 L115.556 270.894 L196 270.45 L214.222    248.672 z" style="fill:rgb(255,255,255);stroke:rgb(0,0,0);stroke-width:4" transform="matrix(1 0 0 1 0 0)"/><line style="stroke:rgb(0,0,0);stroke-width:2" transform="matrix(1 0 0 1 0 0)" x1="201" x2="221" y1="240" y2="188"/><text style="fill:rgb(0,0,0);font-family:Arial;font-size:55;font-weight:bold" x="145" y="258">$</text></svg>
